X:636
T: Shida zhenggangge
N: C2159
O: China, Hubei Wufeng
S: I, 414]
R: Shange]
M: 4/4
L: 1/16
K: C
d2cde2d2c8 | A2c2d2e2c8
d3ed2c2A8 | A2c2d2c2A8
A2c2d2e2Acd4e2 | c2A2d2c2A8
e2e2e2d2c4A4 | d4d2cde6g2
d2ccd2d2e2ege4 | e2ecd12
A4c4A2e2e2d2 | d2d2A2d2c2c6
A4c4e4d2c2 | d2d2A2c2d2c6
d2cde2d2c8 | A2c2d2e2c8
d2e2d2c2A8 | A4d2c2A8
A2c2d2e2Acd4e2 | c2A2d2c2A8

